X:1
T:Title
%%score { ( 1 3 5 ) | ( 2 4 ) }
L:1/8
M:6/8
K:C
V:1 treble nm="Grand Piano"
V:3 treble 
V:5 treble 
V:2 bass 
V:4 bass 
V:1
 z3 z2[Q:1/4=78] [G,EG] | [G,EG]>[G,DF][G,CE] [B,D]>[CE][DF] | G3 z3 | z3 .A3 |[M:5/8] z5 | %5
[M:1/8] [Ac] |[M:3/4] [DGB]>[GB] [GB][FB] [F_B][F=B] | [CEc]3 [B,DEB]2 [CEGA] | %8
 [B,EGB]>[^FA] [EG] [B,EF]2 [A,_EF] |[M:5/8] E-E- E3 |[M:1/8] E |[M:3/4] F>E FD EF | G4 z2 | %13
 A2 A [AB]2 [^GB] |[M:5/8] [Ac]-[Ac]- [Ac]3 |[M:1/8] [A^c] |[M:3/4] [Ad]>A AA Bc | c3 G2 E | %18
 F>E F D2 [B,D] |[M:13/8] C-C- C3 z z z z z z z2 |[M:3/4] F6 | E6 |] %22
V:2
 z3 z2 C, | C,>C,C, G,>G,G, | z2 F, [C,E,C]2 ^C, | D,>[D,G,][D,F,D] [E,^C]>F,[D,G,E] | %4
[M:5/8] [D,A,]-[D,A,]- [D,A,]3 |[M:1/8] [D,D] |[M:3/4] G,>[G,D] [G,D] ^G,2 [G,D] | %7
 [A,,A,]3 B,,2 C, | z z/ B,/ B, B,,2 B,, |[M:5/8] [E,G,B,]-[E,G,B,]- [E,G,B,]3 |[M:1/8] [E,G,B,] | %11
[M:3/4] [D,A,C]>[D,A,C] [D,A,C][F,G,B,] [F,G,B,][F,G,B,] | D2 z [E,G,C]2 [C,C] | %13
 [F,CF]2 [F,C] [E,E]2 [E,E] |[M:5/8] [A,E]-[A,E]- [A,E]3 |[M:1/8] [G,E] | %16
[M:3/4] [F,D]>[F,D] [F,D][K:treble][D^F]- [B,DF][A,DF] | [G,EG]3 [G,CE]2[K:bass] [A,C] | %18
 [D,A,C]2 [D,A,C] [G,C]2 [G,,F,] |[M:13/8] [C,E,]-[C,E,]- [C,E,]3 z z z z z z z2 | %20
[M:3/4] [C,A,C]6 | [C,G,C]6 |] %22
V:3
 x6 | x6 | [G,E]2 D G2 [A,EA] | [F-A]3 F3- |[M:5/8] F-F- F3 |[M:1/8] x |[M:3/4] z2 z .D3 | x6 | %8
 x6 |[M:5/8] x5 |[M:1/8] x |[M:3/4] x6 | z z/ C/ B, G2 [EG] | x6 |[M:5/8] x5 |[M:1/8] x | %16
[M:3/4] x6 | x6 | x6 |[M:13/8] x13 |[M:3/4] x6 | x6 |] %22
V:4
 x6 | x6 | C,3 z3 | z3 .D,3 |[M:5/8] x5 |[M:1/8] x |[M:3/4] G,,3 ^G,,3 | x6 | B,,4 z2 |[M:5/8] x5 | %10
[M:1/8] x |[M:3/4] x6 | [E,G,]4 z2 | x6 |[M:5/8] x5 |[M:1/8] x |[M:3/4] z2 z[K:treble] C z2 | %17
 x5[K:bass] x | x6 |[M:13/8] x13 |[M:3/4] x6 | x6 |] %22
V:5
 x6 | x6 | x6 | A,>EA z z/ D/A |[M:5/8] A-A- A3 |[M:1/8] x |[M:3/4] x6 | x6 | x6 |[M:5/8] x5 | %10
[M:1/8] x |[M:3/4] x6 | x6 | x6 |[M:5/8] x5 |[M:1/8] x |[M:3/4] x6 | x6 | x6 |[M:13/8] x13 | %20
[M:3/4] x6 | x6 |] %22

